src/assets/Imgs/proposal/creatIcon.svg

<svg fill="none" height="44" viewBox="0 0 44 44" width="44" xmlns="http://www.w3.org/2000/svg"><rect fill="#2f8fff" height="44" rx="8" width="44" y=".000488"/><path clip-rule="evenodd" d="m14.4074 9.77832h16c1.6569 0 3 1.34318 3 2.99998v17.176c0 2.0778-2.0612 3.5264-4.0162 2.8226l-.9537-.3433c-.732-.2635-1.5378-.2324-2.2473.0869l-2.5517 1.1483c-.7829.3523-1.6793.3523-2.4622 0l-2.5517-1.1483c-.7095-.3193-1.5153-.3504-2.2473-.0869l-.9537.3433c-1.955.7038-4.0162-.7448-4.0162-2.8226v-17.176c0-1.6568 1.3432-2.99998 3-2.99998zm14.1111 7.23608c.6213 0 1.125-.5037 1.125-1.125s-.5037-1.125-1.125-1.125h-12.2222c-.6214 0-1.125.5037-1.125 1.125s.5036 1.125 1.125 1.125zm1.125 3.7639c0 .6213-.5037 1.125-1.125 1.125h-12.2222c-.6214 0-1.125-.5037-1.125-1.125s.5036-1.125 1.125-1.125h12.2222c.6213 0 1.125.5037 1.125 1.125zm-7.2361 6.0139c.6213 0 1.125-.5037 1.125-1.125s-.5037-1.125-1.125-1.125h-6.1111c-.6214 0-1.125.5037-1.125 1.125s.5036 1.125 1.125 1.125z" fill="#fff" fill-rule="evenodd"/></svg>

<svg width="44" height="44" viewBox="0 0 44 44" fill="none" xmlns="http://www.w3.org/2000/svg">
<rect y="0.000488281" width="44" height="44" rx="8" fill="#2F8FFF"/>
<path fill-rule="evenodd" clip-rule="evenodd" d="M14.4074 9.77832H30.4074C32.0643 9.77832 33.4074 11.1215 33.4074 12.7783V29.9543C33.4074 32.0321 31.3462 33.4807 29.3912 32.7769L28.4375 32.4336C27.7055 32.1701 26.8997 32.2012 26.1902 32.5205L23.6385 33.6688C22.8556 34.0211 21.9592 34.0211 21.1763 33.6688L18.6246 32.5205C17.9151 32.2012 17.1093 32.1701 16.3773 32.4336L15.4236 32.7769C13.4686 33.4807 11.4074 32.0321 11.4074 29.9543V12.7783C11.4074 11.1215 12.7506 9.77832 14.4074 9.77832ZM28.5185 17.0144C29.1398 17.0144 29.6435 16.5107 29.6435 15.8894C29.6435 15.2681 29.1398 14.7644 28.5185 14.7644L16.2963 14.7644C15.6749 14.7644 15.1713 15.2681 15.1713 15.8894C15.1713 16.5107 15.6749 17.0144 16.2963 17.0144L28.5185 17.0144ZM29.6435 20.7783C29.6435 21.3996 29.1398 21.9033 28.5185 21.9033H16.2963C15.6749 21.9033 15.1713 21.3996 15.1713 20.7783C15.1713 20.157 15.6749 19.6533 16.2963 19.6533L28.5185 19.6533C29.1398 19.6533 29.6435 20.157 29.6435 20.7783ZM22.4074 26.7922C23.0287 26.7922 23.5324 26.2885 23.5324 25.6672C23.5324 25.0459 23.0287 24.5422 22.4074 24.5422L16.2963 24.5422C15.6749 24.5422 15.1713 25.0459 15.1713 25.6672C15.1713 26.2885 15.6749 26.7922 16.2963 26.7922H22.4074Z" fill="white"/>
</svg>
